X:5983
T:Sheila Coyle's
O:england
M:C|
L:1/8
R:reel
D:Four Men and a Dog: Barking Mad
K:D
FA~A2 FADF|ADFA BAGF|GB~B2 BcBG|ABdf edBA|
FA~A2 FADF|ADFA BAGF|GABd AFDF|EFGE FDD2:|
|:dffe fgfe|dcdB AFDF|Ac~c2 ecAc|~B3A BAFA|
dffe fgfe|dcdB AFDF|GB~B2 AFDF|EFGE FDD2:|


